!!!OTL: Reiterlied.
!!!ARE: Europa, Mitteleuropa, Deutschland
!!!SCT: A0427
!!!TXL: @@GMH
!!!YEM: Copyright 1995, estate of Helmut Schaffrath.
**kern	**text
*M6/2	*
*met(C|3)	*
*clefC3	*
*k[b-]	*
*g:dor	*
!LO:TX:a:t=dor. tr. mit aeol. Schluß.	!
{2G	Wol
=1	=1
1B-	uff,
2A	ir
1B-	lie-
2c/	-ben
=2	=2
1.d	gſel-
1G}	-len,
{2g	die
=3	=3
*lig	*
1f	vns
4e	.
4d	.
1c#i	.
*Xlig	*
2d	ge-
=4	=4
2f	-brů-
1e	-dert
1d}	ſein,}
{2G	Und
=5	=5
1B-	ra-
2A	-ten
1B-	ʒů
2c/	wir
=6	=6
1.d	wöl-
1G}	-len
{2g	dort
=7	=7
*lig	*
1f	praſ-
4e	.
4d	.
1c#i	.
*Xlig	*
2d	-ſen
=8	=8
2f	ü-
1e	-ber
1d}	Rein,}
{2c	Es
=9	=9
1d	kumbt
2e-i	ein
1f	fri-
2g	-ſcher
=10	=10
1f	ſum-
2d	.
2B-	.
1c	.
=11	=11
1B-}	-mer,
{2c	dar
1d	vff
2B-	mein
=12	=12
2c/	ſach
1A	ich
1G}	ſetʒ,
{2G	als
=13	=13
1d	ye
*lig	*
2.B-	len-
4A	.
*Xlig	*
2B-	-ger
2c/	ye
=14	=14
1d	dum-
2d}	-mer:
{1d	Hin,
2c	hin
=15	=15
1d	e-
2e	-ber
1f}	wetʒ,
{2a	wack,
=16	=16
*lig	*
1g	hüt-
4f	.
4e	.
1d	.
2c#i	.
=17	=17
1d	.
*Xlig	*
2e}	-lein
*lig	*
{2f	in
2g	.
*Xlig	*
2e	dem
=18	=18
!LO:TX:a:t=P:0dd in the source:problem	!
([0dll	gfretʒ.
2dyy]}	.
==	==
!!!GTL: Landsknecht- und Reiterlieder
!!!AGN: Romanze, Ballade, Lied, Kriegslied
!! Peter Schoeffer 1513 No. 55.
!!!ONB: ESAC (Essen Associative Code) Database: ALTDEU
!!!AMT: compound duple
!!!AIN: vox
!!!EED: Helmut Schaffrath
!!!EEV: 1.0
!!!RDF**kern: i = editorial accidental
!!!RDF**kern: l = terminal long
!!!AMD: Dorian
!!!URL-scan: https://rosdok.uni-rostock.de/mcrviewer/recordIdentifier/rosdok_ppn738218359/iview2/phys_0606.iview2?x=-1294.6859637568468&y=115.0750208767131&scale=0.3170017948926&rotation=0&layout=singlePageLayout&logicalDiv=log_0016
!!!ENC: Anna Maria Matuszewska
!!!EEV: 2024/18/03
*-	*-
